X: 1
T:MacCrimmons Lament, "Cha Till Mi Tuille"
R:Slow Air
B:The Skye collection
O:Scotland
M:4/4
L:1/8
K:C
A>A e2 d2 {d}e2| A2 {bag}f2 e>deA|1 G2 (3GBd {e}dB dA:|2 G2 (3GBd e2 dB|
G>G B2 e2 d>A||!
g>feA g>feA| g>feA g>feA|1 g>edG g>edG| g>edG d>B A2:|2 G2 (3GBd e2 dB|G
2 (3GBd e2 dA||
